X:1
T:Title
%%score [ ( 1 2 ) ( 3 4 ) ]
L:1/8
Q:1/4=108
M:4/4
K:D
V:1 treble nm="Midi_20"
V:2 treble 
V:3 bass nm="Midi_20"
V:4 bass 
V:1
"^Bethlehem (S.M.)""^Commit thou all thy griefs""^Samuel Wesley\n(1766-1837)""^John Wesley\n(1703-91)" A2 | %1
 d2 F2 G2 B2 | A6 A2 | B2 A2 c2 d2 | E6 || A2 x6 | A2 d2 c2 F2 | F2 B2 A2 B2 | G2 F2 E2 E2 | D6 |] %10
V:2
 F2 | D2 D2 D2 D2 | D6 D2 | G2 D2 G2 F2 | C6 || E2 x6 | D2 F2 E2 E2 | D2 G2 F2 G2 | E2 D2 D2 C2 | %9
 D6 |] %10
V:3
"^1. Commit thou all thy griefs\nAnd ways into his hands,\nTo his sure truth and tender care,\nWho heaven and earth commands.\n\n2. Who points the clouds their course,\nWhom winds and seas obey;\nHe shall direct thy wandering feet,\nHe shall prepare thy way.\n\n3. Thou on the Lord rely;\nSo safe shalt thou go on;\nFix on his work thy steadfast eye,\nSo shall thy work be done." A,2 | %1
 A,2 A,2 G,2 G,2 | F,6 A,2 | D2 A,2 G,2 A,2 | A,6 || %5
"^4. No profit canst thou gain\nBy self-consuming care;\nTo him commend thy cause, his ear\nattends the softest prayer.\n\n5. Thy everlasting truth,\nFather, thy ceaseless love,\nSees all thy children's wants, and knows\nWhat best for each will prove.\n\n6. Thou everywhere hast sway,\nAnd all things serve thy might;\nThy every act pure blessing is,\nThy path unsullied light.\n" C2 A,2 A,2 A,2 | %6
 C2 D2 D2 D2 | D2 A,2 A,2 B,2 | A,G, F,6 | x6 |] %10
V:4
 D,2 | F,2 D,2 B,,2 G,,2 | D,6 F,2 | G,2 F,2 E,2 D,2 | A,,6 || A,2 x6 | F,2 D,2 A,2 ^A,2 | %7
 B,2 G,2 D,2 G,2 | C,2 D,2 G,,2 A,,2 | D,6 |] %10

